X: 2
%T: 花
T: Hana
T: Flower
%C: 詞,曲, 喜納晶吉
C: Lyrics, music by Kina Shoukichi
O: Okinawa
F: http://www.uighurbiz.net/bbs/viewthread.php?tid=176586 2010-3-23
F: http://www.youtube.com/watch?v=-2k1xfFxOk8
F: http://www.youtube.com/watch?v=fyVKAn2Y1n0
F: http://www.youtube.com/watch?v=y34Lneyp5yA
M: 2/4
L: 1/8
K: G
[| "G"z2DD D2E2 | "Em"z2GA B2G2 | "Am"ABAG "D7"E2F2 | "G"G4 z4 \
|  "D"z2d2 d2e2 | "Em"g3g g2d2 | "C"eged B2AB | "D7"d4 z4 |
|  "G"z2DD D2E2 | "Em"G3A B2G2 | "C"A2B2 g2e2 | "D7"d4 B2d2 \
|  "G"zBBc B2{A}A2 | "Am"zAAB A2{G}G2 | "D7"FFFF FGA2 | "G"G8 ||
|: "D"z2dd d2e2 | "Em"g4 g4 | "C"zgga g2e2 | "D7"d4 B2d2 \
|  "Em"zBBc B2{A}A2 | "Am"zAAB A2{G}G2 | "D7"zFFF FGA2 | "G"G4 :|
